X: 166
T:Cataloochee Ranch
M:3/4
L:1/8
F:http://blackrosetheband.googlepages.com/ABCTUNES.ABC May 2009
K:A
E2|:"A"A3Bc2|"D"d3ed2|"A"c3B (3cBA|A4 a2|
"D"f4e2|d4 (3edc|"E"B4A2|G4 (4FGFE|
"A"A3Bc2|"D"d2e2d2|"A"c3B (3cBA|A4 e2|
"D"f3ed2|"E"(4cdcB Az Gz|"A"A4E2|A,4 E2:|

